X:1
T:Drive Dull Care Away
M:2/4
L:1/8
K:F
g/2-f/2| de d/2c/2 B| ccd/2-e/2 f| dBc/2-B/2 A| G2 z|g/2-f/2| dd cB|\
 ccd/2-e/2 f| dBc/2-B/2 A| G2 z f/2f/2| gab/2-a/2 g| fg d z| g f/2f/2 d/2e/2 f|\
 g2 z f| de f c/2B/2| ccd/2-e/2 f| dBc/2-B/2 A| G2 z f| gab/2-f/2 g|\
